X:1
T:Title
%%score { ( 1 4 ) | ( 2 3 5 ) }
L:1/8
M:4/4
K:Db
V:1 treble nm="Grand Piano"
V:4 treble 
V:2 bass 
V:3 bass 
V:5 bass 
V:1
 z4 z2[Q:1/4=100] (3[DF][EG][_F=G] | [FA]2 [GB]2 [FA]2 (3[DF][EG][_F=G] | [FA]2 [GB]2 [FA]2 cd | %3
 e2 c2 A2 e2 | [Fd]2 (3ddd d2 (3F[EG][_F=G] | [FA]2 [GB]2 [FA]2 (3[DF][EG][_F=G] | %6
 [FA]2 [GB]2 [FA]2 (3ccd | e2 c2 A2 e2 | [Fd]2 (3ddd d2 z2 | A6 z2 | A6 z2 | e2 cB A2 B2 | %12
 [FA]2 (3AAA A2 z2 | G6 z2 | F6 z2 | E2 A[Ac] [=Ge]2 .[B,EG]2 | %16
 [A,CEA]2 (3[CEGA][EGA][EGA] [CEGA]2 z2 | A6 z2 | A6 z2 | [Fd]2 [Fd][Fd] [Ge]2 [Fd]2 | d4 B2 BB | %21
 d2 d2 c2 BB |[M:9/8] A2 d- d f2- fe[Ge] |[M:4/4] d4 [Gc]4 |[M:3/4] d6 |] %25
V:2
 z4 z2 (3[D,A,][D,A,][D,A,] | [D,D]2 [D,D]2 [D,D]2 (3[D,A,][D,A,][D,A,] | %2
 [D,D]2 [D,D]2 [D,D]2[K:treble] [A,EG][A,DF] | [A,CG]2 [A,EG]2 [A,CG]2 [A,CG]2 | %4
 z2[K:treble] (3[FA][FA][FA] [FA]2[K:bass] (3[D,A,D][D,A,][D,A,] | %5
 [D,D]2 [D,D]2 [D,D]2 (3[D,A,][D,A,][D,A,] | [D,D]2 [D,D]2 [D,D]2[K:treble] (3[A,E][A,E][A,F] | %7
 [A,CG]2 [A,EG]2 [A,CG]2 [A,CG]2 | z2[K:treble] (3[FA][FA][FA] [FA]2 z2 | %9
 [E,DF]2 (3[E,C][E,C][A,C] [D,D]2[K:treble] (3EFG | D,2 (3[E,C][E,C][A,C] [D,D]2[K:treble] E[A,F] | %11
 [A,CG]2 [A,EG][A,CG] [A,CG]2 [A,CG]2 | z2[K:treble] (3FFF F2 z2 | %13
 [A,CE]2 (3[A,C][A,C][A,C] [A,C]2 (3CDE | [D,A,D]2 (3[D,A,][D,A,][D,A,] [D,A,]2 [D,F,][D,A,D] | %15
 [E,A,C]2 [E,CE][E,E] [E,D]2 z D | z2 (3z CC F,2 E,2 | %17
 D,2 (3[E,C][E,C][A,C] [D,D]2[K:treble] (3EFG | D,2 (3[E,C][E,C][A,C] [D,D]2 [D,D][D,D] | %19
 [D,A,]2 [D,A,][D,A,] [D,B,]2 [D,_C]2 | [G,G]4- [G,DG]2 [G,DG][G,DG] | %21
 [=G,B,_F]2 [G,B,F]2 [G,CF]2 [G,DF][G,DF] | %22
[M:9/8] [A,DF]2 [A,DF]- [A,DF] [A,DA]2- [A,DA][K:bass][G,B,G][E,B,] |[M:4/4] [A,F]4 [A,,A,]4 | %24
[M:3/4] A,2 z2 z2 |] %25
V:3
 x8 | x8 | x6[K:treble] x2 | x8 | [D,A,D]6[K:treble][K:bass] z2 | x8 | x6[K:treble] x2 | x8 | %8
 [D,A,D]6[K:treble] z2 | x6[K:treble] x2 | x6[K:treble] x2 | x8 | [D,D]6[K:treble] z2 | x8 | x8 | %15
 z4 z2 E,2 | z2 G,2 z4 | x6[K:treble] x2 | x8 | x8 | B,4 z4 | x8 |[M:9/8] x7[K:bass] x2 | %23
[M:4/4] x8 |[M:3/4] D,2- [D,-B,]2 [D,A,]2 |] %25
V:4
 x8 | x8 | x8 | x8 | x8 | x8 | x8 | x8 | x8 | z2 (3GGG F2 (3GAB | [DF]2 (3GGG F2 cd | x8 | x8 | %13
 z2 (3EEE E2 (3EFG | z2 (3DDD D2 DF | x8 | x8 | [DF]2 (3GGG F2 (3GAB | [DF]2 (3GGG F2 [FA][FA] | %19
 x8 | x8 | x8 |[M:9/8] x9 |[M:4/4] x8 |[M:3/4] F2 G2 F2 |] %25
V:5
 x8 | x8 | x6[K:treble] x2 | x8 | x2[K:treble] x4[K:bass] x2 | x8 | x6[K:treble] x2 | x8 | %8
 x2[K:treble] x6 | x6[K:treble] x2 | x6[K:treble] x2 | x8 | x2[K:treble] x6 | x8 | x8 | x8 | %16
 A,,6 z2 | x6[K:treble] x2 | x8 | x8 | x8 | x8 |[M:9/8] x7[K:bass] x2 |[M:4/4] x8 |[M:3/4] x6 |] %25

